X:1
T:Vier Lieder
T:Trinklied
T:Felix Mendelssohn
T:J. W. von Goethe
T:Trinklied
T:No. 3 aus Vier Lieder, Op. 75
T:CPDL - Creative Commons Attribution Non Commercial 3.0
T:CPDL - Creative Commons Attribution Non Commercial 3.0
T:CPDL - Creative Commons Attribution Non Commercial 3.0
T:CPDL - Creative Commons Attribution Non Commercial 3.0
C:Felix Mendelssohn
Z:Johann Wolfgang von Goethe
Z:CPDL - Creative Commons Attribution Non Commercial 3.0
%%score [ 1 2 3 4 ]
L:1/8
Q:1/4=126
M:3/4
K:E
V:1 treble-8 nm="Tenor 1"
V:2 treble-8 nm="Tenor 2"
V:3 bass nm="Bass 1"
V:4 bass nm="Bass 2"
V:1
"^Allegro vivace"!f! GA B | c>B AB cd | !>!e2 BB cd | e>d cd ef | g2 f2 z2 |!<(! e>!<)!d c2 z c | %6
w: 1.   So lang man|nüch- tern ist ge- fällt das|Schlech- te, wie man ge-|trun- ken hat weiss man das|Rech- te,|weiss _ man das|
w: 2. Denn mei- ne|Mei- nung ist nicht ü- ber-|trie- ben: wenn man nicht|trin- ken kann soll man nicht|lie- ben,|soll _ man nicht|
!<(! e>!<)!d c2 z2 | e2 d2 c2 | d3 d d2 | d>c Bc de |!<(! f6-!<)! | f>e d2 z2 | z2 z c FG | %13
w: Rech- * te,|wie man ge-|trun- ken hat|weiss _ man _ das _|Rech-|* * te.|Nur ist das|
w: lie- * ben,|wenn man nicht|trin- ken kann,|soll _ man _ nicht _|lie-|* * ben.|Doch sollt ihr|
 A>G Fc f^e | f2 c2 z c | (F>G) A2 z2 |!f! f2 B2 e2 | e>d d2 z2 | f2 B2 e2 | e>d d2 z2 | %20
w: Ü- ber- maß auch gleich zu|Han- den, das|Ü- ber- maß;|Ha- fis! o|leh- re mich|wie du's ver-|stan- * den,|
w: Trin- ker euch nicht bes- ser|dün- ken, nicht|bes- * ser|wenn man nicht|lie- ben kann|soll man nicht|trin- * ken,|
!p!"^Solo" e2 e2 e2 | e3 d/c/ B2 | ^A2 c2 e2 | g4 f2 |!f!"^Tutti" e2 e2 e2 | e3 d/c/ B2 | %26
w: Ha- fis! o|leh- re _ mich|wie du's ver-|stan- den,|Ha- fis! o|leh- re _ mich|
w: wenn man nicht|lie- ben * kann|soll man nicht|trin- ken,|wenn man nicht|lie- ben * kann|
 ^A2 c2 e2 | (g4 f2) |[Q:1/4=120]"^ritard." e6- | e6- | !fermata!e6 |] %31
w: wie du's ver-|stan- *|den.|_||
w: soll man nicht|trin- *|ken,|_||
V:2
!f! GA B | c>B AB cB | !>!B2 BB BB | B>B BB Be | e2 d2 z2 |!<(! e>!<)!d c2 z c | %6
w: ||||||
w: ||||||
!<(! e>!<)!d c2 z2 | e2 d2 c2 | d3 d c2 | B>^A GA Bc | d2 cc de | d>c B2 z2 | z6 | z2 z c FG | %14
w: ||||Rech- te, weiss man das|Rech- * te.||Nur ist das|
w: ||||lie- ben, soll man nicht|lie- * ben.||Doch sollt ihr|
 A>G Fc f^e | f2 c2 z2 |!f! B2 B2 B2 | B>B B2 z2 | B2 B2 B2 | B2 B2 z2 |!p! e2 d2 c2 | B3 A G2 | %22
w: Ü- ber- maß auch gleich zu|Han- den;|||||||
w: Trin- ker euch nicht bes- ser|dün- ken,|||||||
 ^A2 A2 A2 | e4 d2 |!f! e2 d2 c2 | B3 A G2 | ^A2 A2 e2 | e4 d2 | e2 e2 d2 | (c4 A2) | %30
w: |||||stan- den,|wie du's ver-|stan- *|
w: |||||trin- ken,|soll man nicht|trin- *|
 !fermata!G6 |] %31
w: den.|
w: ken.|
V:3
!f! E,F, G, | A,>G, F,G, A,F, | !>!G,2 G,E, E,F, | G,>F, E,F, G,^A, | B,2 B,,B, B,B, | %5
w: 1.   So lang man|nüch- tern ist ge- fällt das|Schlech- te, wie man ge-|trun- ken hat weiss man das|Rech- te, wie man ge|
w: 2. Denn mei- ne|Mei- nung ist nicht ü- ber-|trie- ben: wenn man nicht|trin- ken kann soll man nicht|lie- ben, wenn man nicht|
!<(! B,>!<)!^A, B,B, B,B, | B,>^A, B,B, B,B, |!<(! B,6-!<)! | B,4 ^A,2 | z6 | B,2 ^A,A, B,C | %11
w: trun- ken hat, wie man ge-|trun- ken hat weiss man das|Rech-|* te,||weiss man, weiss man das|
w: trin- ken kann, wenn man nicht|trin- ken kann soll man nicht|lie-|* ben,||soll man, soll man nicht|
 B,2 B,,2 z2 | z6 | z2 z C F,G, | A,>G, F,C F,G, | (A,>G,) F,2 z2 |!f! A,2 A,2 A,2 | A,>A, A,2 z2 | %18
w: Re- chte.|||||Ha- fis! o|leh- re mich|
w: lie- ben.|||||wenn man nicht|lie- ben kann|
 A,2 A,2 A,2 | A,2 A,2 z2 |!p! G,2 B,2 A,2 | G,3 A, B,2 | E,2 E,2 E,2 | B,4 A,2 |!f! G,2 B,2 A,2 | %25
w: wie du's ver-|stan- den,|Ha- fis! o|leh- re mich|wie du's ver-|stan- den,|Ha- fis! o|
w: soll man nicht|trin- ken,|wenn man nicht|lie- ben kann|soll man nicht|trin- ken,|wenn man nicht|
 G,3 A, B,2 | E,2 E,2 ^A,2 | B,6 | E,4 z2 | A,2 E,2 F,2 | G,2 !fermata!B,4 |] %31
w: leh- re mich|wie du's ver-|stan-|den,|wie du's ver-|stan- den.|
w: lie- ben kann|soll man nicht|trin-|ken,|soll man nicht|trin- ken.|
V:4
!f! E,E, E, | E,>E, E,E, E,E, | !>!E,2 E,E, E,E, | E,>E, E,E, E,C, | B,,2 .B,,2 z2 | %5
w: |||||
w: |||||
!<(! G,>!<)!F, E,2 z E, |!<(! G,>!<)!F, E,2 z2 | G,2 F,2 E,2 | D,3 D, D,2 | G,2 G,2 G,2 | F,6 | %11
w: weiss _ man das|Rech- * te,|wie man ge-|trun- ken hat|weiss man das|Rech-|
w: soll _ man nicht|lie- * ben,|wenn man nicht|trin- ken kann,|soll man nicht|lie-|
 B,,2 z C F,G, | A,>G, F,C, F,^E, | F,2 C,2 z C, | F,>G, A,2 z C, | (A,>B,) C2 z2 | %16
w: te. Nur ist das|Ü- ber- maß auch gleich zu|Han- den; das|Ü- ber- maß das|Ü- ber- maß|
w: ben. Doch sollt ihr|Trin- ker euch nicht bes- ser|dün- ken, nicht|bes- * ser nicht|bes- * ser|
!f! D,2 D,2 E,2 | F,>F, F,2 z2 | D,2 D,2 C,2 | B,,2 B,,2 z2 |!p! E,2 E,2 E,2 | E,3 E, E,2 | %22
w: ||||||
w: ||||||
 C,2 C,2 C,2 | B,,4 B,,2 |!f! E,2 E,2 E,2 | E,3 E, E,2 | C,2 C,2 C,2 | B,,4 B,,2 | C,2 C,2 B,,2 | %29
w: |||||stan- den,|wie du's ver-|
w: |||||trin- ken,|soll man nicht|
 A,,6 | !fermata!E,,6 |] %31
w: stan-|den.|
w: trin-|ken.|

